!!!!SEGMENT: pl-kj--bj-muz-15425-iii--002_wieniawski-henryk--deux-mazurkas-de-salon-op-12-chanson-polonaise.krn
!!!cenid: 18xx:3828
!!!COM: Wieniawski, Henryk
!!!COM-rismID: pe137176
!!!CDT: 1835/07/10-1880/03/31
!!!CNT:
!!!GTL: Deux Mazurkas de Salon op. 12
!!!OTL: Chanson polonaise
!!!PDT:
!!!AGN:
!!!SMS-siglum: PL-Kj
!!!SMS-shelfmark: BJ Muz. 15425 III
!!!SMS-shelfwork: 002 G
!!!SMS-variant: VIOLINO.: PL-Kj BJ Muz. 15425 III:10-14
!!!SMS-altvar: VIOLINO.: PL-Kj BJ Muz. 15425 III:19-21
!!!NIFC-rismSourceID:
!!!NIFC-islandoraID:
!!!URL-pdf-islandora:
!!!URL-scan: https://polona.pl/item/deux-mazurkas-de-salon-pour-violon-avec-accompagnement-de-piano-op-12,ODM5NDU5NjA/2/#info:metadata @EN{Scan on Polona} @PL{Skany w portalu Polona}
!!!ONB-nifc: UWAGA: 1. Sielauka, 2. Chanson polonaise. Na podstawie partytury (SMS:variant), partia skrzypiec do SMS:altvar
!!!AIN: 2 piano 1 violn
!!!key: g
!!!OMD: Andantino.
!!!OMD-mod: Andantino
**kern	**kern	**dynam	**kern	**dynam
*	*	*	*scale:70%	*
*part3	*part2	*part2	*part1	*part1
*staff3	*staff2	*	*staff1	*
*I"PIANO.	*I"PIANO.	*	*I"VIOLINO.	*
*I'	*I'	*	*I'	*
*Ipiano	*Ipiano	*	*Ivioln	*
*ICklav	*ICklav	*	*ICstr	*
*IGacmp	*IGacmp	*	*IGsolo	*
*mI"Pianoforte	*mI"Pianoforte	*	*mI"Violino 	*
*mI'pf	*mI'pf	*	*mI'vl	*
*clefF4	*clefG2	*	*clefG2	*
*k[b-e-]	*k[b-e-]	*	*k[b-e-]	*
*g:	*g:	*	*g:	*
*M3/4	*M3/4	*	*M3/4	*
4r	4dd\	p	4r	.
=1	=1	=1	=1	=1
4C/	8.ee-\L	<	2.r	.
.	16ff\Jk	.	.	.
4e- 4c 4G\	4.gg\	.	.	.
4e- 4c 4G\	.	.	.	.
.	8ee-\	[[	.	.
=2	=2	=2	=2	=2
.	(16qqdd/LL	.	.	.
.	16qqee-/JJ)	.	.	.
4GG/	8.dd\L	.	2.r	.
.	16cc#X\Jk	.	.	.
4B- 4G 4D\	4.dd\	.	.	.
4B- 4G 4D\	.	.	.	.
.	8b-\	.	.	.
=3	=3	=3	=3	=3
*	*^	*	*	*
[2.A (<2.C\	(8.an/L	2.e-\	.	2.r	.
.	16ee-/Jk)	.	.	.	.
.	2ee-/	.	.	.	.
=4	=4	=4	=4	=4	=4
2.A] 2.D;\)	(8.f#X/L	2.c\	.	2.r	.
.	16dd/Jk)	.	.	.	.
.	2dd;/	.	.	.	.
*	*v	*v	*	*	*
=5	=5	=5	=5	=5
!	!	!LO:MO:null:mod=p	!	!
4GG/	4r	.	2.r	.
!	!	!LO:DY:rj	!	!
!	!	!LO:MO:null:mod=.	!	!
4r	4g 4d 4B-/	p	.	.
4r	4g 4d 4B-/	.	.	.
=6	=6	=6	=6	=6
4GG/	4r	.	4r	.
4r	4g 4d 4B-/	.	4r	.
4r	4g 4d 4B-/	.	4dd\	p
!!LO:LB:g=original
=7	=7	=7	=7	=7
4C/	4r	.	(8.ee-'\L	.
.	.	.	16ff'\Jk)	.
4r	4g 4e- 4G/	.	4.gg\	.
4r	4g 4e- 4G/	.	.	.
.	.	.	8ee-\	.
=8	=8	=8	=8	=8
.	.	.	(16qqdd/LL	.
.	.	.	16qqee-/JJ)	.
4GG/	4r	.	8.dd\L	.
.	.	.	16cc#X\Jk	.
4r	4g 4d 4B-/	.	4.dd\	.
4r	4g 4d 4B-/	.	.	.
.	.	.	8b-\	.
=9	=9	=9	=9	=9
.	.	.	(16qqccn/LL	.
.	.	.	16qqdd/JJ)	.
4D\	4r	.	8.cc\L	.
.	.	.	16bn\Jk	.
4r	4f#X 4d 4c/	.	4cc\	.
4r	4f# 4d 4c/	.	4a/	.
=10	=10	=10	=10	=10
4GG/	4r	.	8.g/L	.
.	.	.	16b-/Jk	.
.	.	.	(>8qb-/	.
4r	4g 4B-/	.	4ee-\)	.
4r	4g 4d 4B-/	.	4dd\	.
=11	=11	=11	=11	=11
4C/	4r	.	8.ee-\L	.
.	.	.	16ff\Jk	.
4r	4g 4e- 4G/	.	4.gg\	.
4r	4g 4e- 4G/	.	.	.
.	.	.	8ee-\	.
=12	=12	=12	=12	=12
.	.	.	(16qqdd/LL	.
.	.	.	16qqee-/JJ)	.
4GG/	4r	.	8.dd\L	.
.	.	.	16cc#X\Jk	.
4r	4g 4d 4B-/	.	4.dd\	.
4r	4g 4d 4B-/	.	.	.
.	.	.	8b-\	.
=13	=13	=13	=13	=13
4AA/	4r	.	8.g#X/L	<
.	.	.	16a/Jk	.
4r	4fn 4d 4A/	.	(4ff\	.
4r	4g 4c#X 4A/	.	4een\)	[
=14	=14	=14	=14	=14
*	*^	*	*	*
!	!	!	!LO:MO:mod=!null:null	!	!
!	!	!	!LO:HP:a	!	!
2.D\	4f 4A/	2d\	<	2.dd\	.
.	2f#X/	.	[	.	.
.	.	8.c#\L	.	.	.
.	.	16d\Jk	.	.	.
*	*v	*v	*	*	*
!!LO:LB:g=original
=15	=15	=15	=15	=15
4BB-/	4r	.	8.ee-\L	.
.	.	.	16ff\Jk	.
4r	4g 4e- 4G/	.	4.gg\	.
4r	4g 4e- 4G/	.	.	.
.	.	.	8ee-\	.
=16	=16	=16	=16	=16
.	.	.	(16qqdd/LL	.
.	.	.	16qqee-/JJ)	.
4GG/	4r	.	8.dd\L	.
.	.	.	16cc#X\Jk	.
4r	4g 4d 4B-/	.	4.dd\	.
4r	4g 4d 4B-/	.	.	.
.	.	.	8b-\	.
=17	=17	=17	=17	=17
.	.	.	(16qqb-/LL	.
.	.	.	16qqdd/JJ)	.
4D\	4r	.	8.cc\L	.
.	.	.	16bn\Jk	.
4r	4f#X 4d 4c/	.	4cc\	.
4r	4f# 4d 4c/	.	4a/	.
=18	=18	=18	=18	=18
4GG/	4r	.	8.g/L	.
.	.	.	16b-/Jk	.
.	.	.	(8qb-/	.
4r	4g 4B-/	.	(4ee-\)	.
4r	4g 4d 4B-/	.	4dd\)	.
=19	=19	=19	=19	=19
4C/	4r	.	8.ee-\L	.
.	.	.	16ff\Jk	.
4r	4g 4e- 4G/	.	4.gg\	.
4r	4g 4e- 4G/	.	.	.
.	.	.	8ee-\	.
=20	=20	=20	=20	=20
.	.	.	(16qqdd/LL	.
.	.	.	16qqee-/JJ)	.
4GG/	4r	.	8.dd\L	.
.	.	.	16cc#X\Jk	.
4r	4g 4d 4B-/	.	4dd\	.
4r	4g 4d 4B-/	.	4b-\	.
=21	=21	=21	=21	=21
4AA/	4r	.	8.g#X/L	.
.	.	.	16a/Jk	.
4r	4fn 4d 4A/	.	(4ff\	.
4r	4g 4c#X 4A/	.	4een\)	.
=22	=22	=22	=22	=22
2.D\	2.f 2.d 2.A/	.	2.dd\	.
!!LO:PB:g=original
=23	=23	=23	=23	=23
!!LO:TX:B:t=:mod=A
!	!	!	!LO:TX:a:B:rj:t=A:mod=	!
2.AA 2.DD^>/	4r	.	(8.dd#X'\L	.
.	.	.	16een'\Jk)	.
.	.	.	8qee/	.
.	4g 4c#X 4A/	.	(4.aa\	.
.	4g 4c# 4A/	.	.	.
.	.	.	8gg\)	.
=24	=24	=24	=24	=24
.	.	.	(16qqff/LL	.
.	.	.	16qqgg/JJ)	.
!LO:SIC:s=2.AA 2.DD^	!	!	!	!
2.AA 2.DD/	4r	.	8.ff\L	.
.	.	.	16een\Jk	.
.	4f 4d 4A/	.	4ff\	.
.	4f 4d 4A/	.	4dd\	.
=25	=25	=25	=25	=25
.	.	.	(16qqcc#X/LL	.
.	.	.	16qqdd/JJ)	.
!LO:SIC:s=2.AA 2.DD^	!	!	!	!
2.AA 2.DD/	4r	.	8.cc#\L	.
.	.	.	16bn\Jk	.
.	4g 4en 4c#X 4A/	.	4cc#\	.
.	4g 4e 4c# 4A/	.	4a/	.
=26	=26	=26	=26	=26
!LO:SIC:s=2.AA 2.DD^	!	!	!	!
2.AA 2.DD/	4r	.	8.dd\L	.
.	.	.	16ff\Jk	.
.	4f 4d 4A/	.	4bb-\	.
.	4f 4d 4A/	.	4aa\	.
=27	=27	=27	=27	=27
!LO:SIC:s=2.AA 2.DD^	!	!	!	!
2.AA 2.DD/	4r	.	8.dd#X\L	.
.	.	.	16een\Jk	.
.	.	.	(>8qee/	.
.	4g 4c#X 4A/	.	4.aa\)	.
.	4g 4c# 4A/	.	.	.
.	.	.	8gg\	.
=28	=28	=28	=28	=28
*	*^	*	*	*
.	.	.	.	(16qqff/LL	.
!	!	!	!	!LO:SIC:v:s=16qqggJJ)	!
.	.	.	.	16qqff/JJ)	.
!	!	!	!LO:MO:mod=!null:null	!	!
!LO:SIC:s=2.AA 2.DD^	!	!	!LO:HP:a	!	!
2.AA 2.DD/	8.f^/L	4r	<	8.ff\L	.
.	16g/Jk	.	.	16een\Jk	.
.	4.a/	4f 4d 4A\	.	4.ff\	.
.	.	4f 4d 4A\	.	.	.
.	8f/	.	[[	8dd\	.
=29	=29	=29	=29	=29	=29
.	.	.	.	(16qqcc#X/LL	.
.	.	.	.	16qqdd/JJ)	.
!LO:SIC:s=2.AA 2.DD^	!	!	!	!	!
2.AA 2.DD/	8.en/L	4r	.	8.cc#\L	.
.	16d/Jk	.	.	16bn\Jk	.
.	4e 4A 4G/	2ryy	.	4cc#\	.
.	4g 4c#X 4A/	.	.	4a/	.
*	*v	*v	*	*	*
!!LO:LB:g=original
=30	=30	=30	=30	=30
4AA 4DD/	8fL 8d 8A/	<	(2.dd\	.
.	8d/	.	.	<
4r	8en/	.	.	.
.	8f/	.	.	.
4r	8g/	.	.	.
.	8g#X/J	[	.	.
=31	=31	=31	=31	=31
*	*^	*	*	*
2.C#X^>/	2.a^/	4r	.	(16dd#X\LL	.
.	.	.	.	16een\	.
.	.	.	.	16dd#\	.
.	.	.	.	16ee\JJ)	.
.	.	.	.	8qee/	.
.	.	4g 4en 4A\	.	4.aa\	.
.	.	4g 4e 4A\	.	.	.
.	.	.	.	8gg\)	[
=32	=32	=32	=32	=32	=32
.	.	.	.	(16qqff/LL	.
.	.	.	.	16qqgg/JJ)	.
2.D^\	2.a^/	4r	.	8.ff\L	.
.	.	.	.	16een\Jk	.
.	.	4f 4d 4A\	.	4ff\	.
.	.	4f 4d 4A\	.	4dd\	.
=33	=33	=33	=33	=33	=33
.	.	.	.	(16qqcc#X/LL	.
.	.	.	.	16qqdd/JJ)	.
2.En^\	2.a^/	4r	.	8.cc#\L	.
.	.	.	.	16bn\Jk	.
.	.	4g 4c#X 4A\	.	4cc#\	.
.	.	4g 4c# 4A\	.	4a/	.
=34	=34	=34	=34	=34	=34
2.F^\	2.a^/	4r	.	8.dd\L	.
.	.	.	.	16ff\Jk	.
.	.	4f 4d 4A\	.	4bb-\	.
.	.	4f 4d 4A\	.	4aa\	.
=35	=35	=35	=35	=35	=35
2.G^\	2.b-^/	4r	.	8.dd#X\L	.
.	.	.	.	16een\Jk	.
.	.	.	.	(>8qqee/	.
.	.	4en 4d\	.	4.aa\)	.
.	.	4e 4d\	.	.	.
.	.	.	.	8gg\	.
=36	=36	=36	=36	=36	=36
.	.	.	.	(16qqff/LL	.
.	.	.	.	16qqgg/JJ)	.
2.A^\	2.a^/	4r	.	8.ff\L	.
.	.	.	.	16een\Jk	.
.	.	4f 4d\	.	4ff\	.
.	.	4f 4d\	.	4dd\	.
!!LO:LB:g=original
=37	=37	=37	=37	=37	=37
2.AA^>/	2.a^/	4r	.	8.cc#Xt\L	.
.	.	.	.	16bn\Jk	.
.	.	4g 4en 4c#X 4A\	.	4cc#\	.
.	.	4g 4e 4c# 4A\	.	4a/	.
*	*v	*v	*	*	*
!	!	!	!LO:TX:a:B:t=B:mod=	!
=38	=38	=38	=38	=38
!!LO:TX:B:t=:mod=B
4D\	4a 4f#X 4d 4A/	.	8.dd\L	.
.	.	.	16ee-X\Jk	.
4r	4r	.	4gg\	.
4r	4r	.	8.ff#X\L	.
.	.	.	16ee-\Jk	.
=39	=39	=39	=39	=39
2.r	2.r	.	8.dd\L	.
.	.	.	16ee-X\Jk	.
.	.	.	4gg\	.
.	.	.	8.ff#X\L	.
.	.	.	16ee-\Jk	.
=40	=40	=40	=40	=40
2.r	2.r	.	8dd\L	.
.	.	.	8ee-\J	.
.	.	.	8gg\L	.
.	.	.	8ff#X\J	.
!!LO:TX:i:t=:mod=poco accelerando
!	!	!	!LO:TX:b:i:t=poco accelerando:mod=	!
.	.	.	8ee-\L	.
.	.	.	8dd\J	.
=41	=41	=41	=41	=41
2.r	2.r	.	8ee-\L	.
.	.	.	8gg\J	.
.	.	.	8ff#X\L	.
.	.	.	8ee-\J	.
.	.	.	8dd\L	.
.	.	.	8ee-\J	.
=42	=42	=42	=42	=42
2.r	2.r	.	8gg\L	.
.	.	.	8ff#X\J	.
.	.	.	8ee-\L	.
.	.	.	8dd\J	.
.	.	.	8ee-\L	.
.	.	.	8gg\J	.
=43	=43	=43	=43	=43
2.r	2.r	.	8ff#X\L	.
.	.	.	8ee-\J	.
.	.	.	8dd\L	.
.	.	.	8cc#X\J	.
.	.	.	8.dd\L	.
.	.	.	16dd\Jk	.
!!LO:LB:g=original
=44	=44	=44	=44	=44
!!LO:TX:t=:mod=a tempo
!	!LO:TX:b:t=a tempo:mod=	!	!LO:TX:a:t=a tempo:mod=	!
4C/	4r	p	8.ee-\L	p
.	.	.	16ffn\Jk	.
4r	4g 4e- 4G/	.	4.gg\	.
4r	4g 4e- 4G/	.	.	.
.	.	.	8ee-\	.
=45	=45	=45	=45	=45
.	.	.	(16qqdd/LL	.
.	.	.	16qqee-/JJ)	.
4GG/	4r	.	8.dd\L	.
.	.	.	16cc#X\Jk	.
4r	4g 4d 4B-/	.	4.dd\	.
4r	4g 4d 4B-/	.	.	.
.	.	.	8b-\	.
=46	=46	=46	=46	=46
.	.	.	(16qqcc/LL	.
.	.	.	16qqdd/JJ)	.
4D\	4r	.	8.cc\L	.
.	.	.	16bn\Jk	.
4r	4f#X 4d 4c/	.	4cc\	.
4r	4f# 4d 4c/	.	4a/	.
=47	=47	=47	=47	=47
4GG/	4r	.	8.g/L	.
.	.	.	16b-/Jk	.
.	.	.	(>8qb-/	.
4r	4g 4B-/	.	4ee-\)	.
4r	4g 4d 4B-/	.	4dd\	.
=48	=48	=48	=48	=48
4C/	4r	.	(8.ee-\L	.
.	.	.	16ff\Jk)	.
4r	4g 4e- 4G/	.	4.gg\	.
4r	4g 4e- 4G/	.	.	.
.	.	.	8ee-\	.
=49	=49	=49	=49	=49
[2.D\	(>2.g 2.d 2.B-/	.	(8dd\L	.
.	.	.	8bb-\)	.
.	.	.	8gg'\	.
.	.	.	8dd'\	.
.	.	.	8b-'\	.
.	.	.	8g'\J	.
=50	=50	=50	=50	=50
*	*^	*	*	*
!	!LO:TX:b:i:t=rall.	!	!	!	!
2.D\]	4g/)	2.d 2.c\	.	(8d/L	.
.	.	.	.	8b-/J)	.
!	!	!	!	!LO:TX:b:i:t=rall.	!
.	2f#X/	.	.	(4.b-/	.
.	.	.	.	8a/)	.
*	*v	*v	*	*	*
=51	=51	=51	=51	=51
*kcancel	*kcancel	*	*kcancel	*
2.GG;/	2.g 2.d 2.B-;/	.	2.g;/	.
!!LO:PB:g=original
=52||	=52||	=52||	=52||	=52||
*k[f#]	*k[f#]	*	*k[f#]	*
!!!OMD:
!!!OMD-mod: Maggiore\nVigoroso
!	!	!	!LO:TX:a:i:t=Vigoroso.:mod=	!
!LO:TX:a:i:t=Vigoroso.:mod=	!LO:TX:a:i:t=Maggiore.:mod=	!	!LO:TX:a:i:t=Maggiore.:mod=	!LO:DY:rj
4GG 4GGG/	4r	f	8.bL 8.d 8.G'/	ff
.	.	.	16ccJk 16d 16G'/	.
4r	4g 4d 4B/	.	2b 2d 2G/	.
4r	4g 4d 4B/	.	.	.
=53	=53	=53	=53	=53
4AA 4AAA/	4r	.	8.aL 8.g 8.c#X'/	.
.	.	.	16bJk 16g 16c#'/	.
4r	4g 4c#X 4A/	.	2a 2g 2c#/	.
4r	4g 4c# 4A/	.	.	.
=54	=54	=54	=54	=54
4D 4DD/	4r	.	8.ff#L 8.ccn 8.d\	.
.	.	.	16ggJk 16cc 16d\	.
4r	4f# 4d 4cn 4A/	.	4aa 4cc 4d\	.
4r	4f# 4d 4c 4A/	.	8bbL 8cc 8d\	.
.	.	.	8aaJ 8cc 8d\	.
=55	=55	=55	=55	=55
4GG 4GGG/	4r	.	(8aaL 8b 8d 8G/	.
.	.	.	8ggJ 8b/)	.
.	.	.	(8qaa 8qb/	.
4r	4g 4d 4B 4G/	.	8ggL 8b\)	.
.	.	.	8ff#J 8b\	.
4r	4g 4d 4B 4G/	.	4gg 4b^\	.
=56	=56	=56	=56	=56
4GG 4GGG/	4r	.	8.bL 8.d 8.G/	.
.	.	.	16bJk 16d 16G/	.
4r	4g 4d 4B/	.	2b 2d 2G/	.
4r	4g 4d 4B/	.	.	.
=57	=57	=57	=57	=57
4AA 4AAA/	4r	.	8.aL 8.g 8.c#X/	.
.	.	.	16bJk 16g 16c#/	.
4r	4g 4c#X 4A/	.	2a 2g 2c#/	.
4r	4g 4c# 4A/	.	.	.
=58	=58	=58	=58	=58
4D 4DD/	4r	.	8.ff#L 8.ccn 8.d\	.
.	.	.	16ggJk 16cc 16d\	.
4r	4f# 4d 4cn 4A/	.	4aa 4cc 4d\	.
4r	4f# 4d 4cn 4A/	.	8bbL 8cc 8d\	.
.	.	.	8aaJ 8cc 8d\	.
!!LO:LB:g=original
=59	=59	=59	=59	=59
4GG 4GGG/	4r	.	(8aaL 8b 8d 8G/	.
.	.	.	8ggJ 8b/)	.
.	.	.	(8qaa 8qb/	.
4r	4g 4d 4B 4G/	.	8ggL 8b\)	.
.	.	.	8ff#J 8a\	.
4r	4g 4d 4B 4G/	.	4gg 4b\	.
=60	=60	=60	=60	=60
4GG 4GGG/	4r	.	8.bL 8.d 8.G'/	.
.	.	.	16ccJk 16d 16G'/	.
4r	4g 4d 4B/	.	2b 2d 2G/	.
4r	4g 4d 4B/	.	.	.
=61	=61	=61	=61	=61
4AA 4AAA/	4r	.	8.aL 8.g 8.c#X'/	.
.	.	.	16bJk 16g 16c#/	.
4r	4g 4c#X 4A/	.	2a 2g 2c#/	.
4r	4g 4c# 4A/	.	.	.
=62	=62	=62	=62	=62
4D 4DD/	4r	.	8.ff#L 8.ccn 8.d\	.
.	.	.	16ggJk 16cc 16d\	.
4r	4f# 4d 4cn 4A/	.	4aa 4cc 4d\	.
4r	4f# 4d 4c 4A/	.	8bbL 8cc 8d\	.
.	.	.	8aaJ 8cc 8d\	.
=63	=63	=63	=63	=63
4GG 4GGG/	4r	.	(8aaL 8b 8d 8G/	.
.	.	.	8ggJ 8b/)	.
.	.	.	(8qaa 8qb/	.
4r	4g 4d 4B 4G/	.	8ggL 8b\)	.
.	.	.	8ff#J 8b\	.
4r	4g 4d 4B 4G/	.	4gg 4b^\	.
=64	=64	=64	=64	=64
4GG 4GGG/	4r	.	8.bL 8.d 8.G'/	.
.	.	.	16ccJk 16d 16G'/	.
4r	4g 4d 4B/	.	2b 2d 2G/	.
4r	4g 4d 4B/	.	.	.
=65	=65	=65	=65	=65
4AA 4AAA/	4r	.	8.aL 8.g 8.c#X'/	.
.	.	.	16bJk 16g 16c#/	.
4r	4g 4c#X 4A/	.	2a 2g 2c#/	.
4r	4g 4c# 4A/	.	.	.
!!LO:LB:g=original
=66	=66	=66	=66	=66
4BB 4DD/	4r	.	8.ff#L 8.ccn 8.d\	.
.	.	.	16ggJk 16cc 16d\	.
4r	4f# 4d 4cn 4A/	.	4aa 4cc 4d\	.
4r	4f# 4d 4c 4A/	.	8bbL 8cc 8d\	.
.	.	.	8aaJ 8cc 8d\	.
=67	=67	=67	=67	=67
4GG 4GGG/	4r	.	(8aaL 8b 8d 8G/	.
.	.	.	8ggJ 8b/)	.
.	.	.	(8qaa 8qb/	.
4r	4g 4d 4B 4G/	.	8ggL 8b\)	.
.	.	.	8ff#J 8a\	.
4r	4g 4d 4B 4G/	.	4gg 4b\	.
!	!	!	!LO:TX:a:B:t=C:mod=	!
=68	=68	=68	=68	=68
!!LO:TX:B:t=:mod=C
!	!	!	!	!LO:DY:rj
4C 4CC/	4r	p	(8.c'/L	mf
.	.	.	16ee'/Jk)	.
4r	4g 4e 4c 4G/	.	4.aa\	.
4r	4g 4e 4c 4G/	.	.	.
.	.	.	8gg\	.
=69	=69	=69	=69	=69
4GG 4GGG/	4r	.	8.ffnT\L	.
.	.	.	16ee\Jk	.
4r	4g 4fn 4B 4G/	.	4ff\	.
4r	4g 4f 4B 4G/	.	4dd\	.
=70	=70	=70	=70	=70
4BB 4BBB/	4r	.	(8.g'/L	.
.	.	.	16dd'/Jk)	.
4r	4g 4fn 4d 4G/	.	4.gg\	.
4r	4g 4f 4d 4G/	.	.	.
.	.	.	8ffn\	.
=71	=71	=71	=71	=71
.	.	.	(16qqee/LL	.
.	.	.	16qqffn/JJ)	.
4C 4CC/	4r	.	8.ee\L	.
.	.	.	16dd#X\Jk	.
4r	4g 4e 4c 4G/	.	4ee\	.
4r	4g 4e 4c 4G/	.	4cc\	.
=72	=72	=72	=72	=72
4E 4EE/	4r	.	(8.eee^<\L	.
.	.	.	16ddd'\Jk)	.
4r	4g 4c 4G/	.	4.ccc\	.
4r	4g#X 4c 4G#X/	.	.	.
.	.	.	(8gg#X\	.
!!LO:LB:g=original
=73	=73	=73	=73	=73
4Fn 4FFn/	4r	.	8bb\L	.
.	.	.	8aa\)	.
4r	4a 4fn 4d 4A/	.	8ggn\	.
.	.	.	8ffn\	.
4r	4a 4f 4d 4A/	.	8ee\	.
.	.	.	8dd\J	.
=74	=74	=74	=74	=74
4G 4GG/	4r	.	8.ccT\L	.
.	.	.	16b\Jk	.
4r	4g 4fn 4d 4A/	.	(4.aa\	.
4r	4g 4f 4d 4A/	.	.	.
.	.	.	8gg\)	.
=75	=75	=75	=75	=75
4c 4C\	4r	.	2ffn\	.
4r	4g 4c 4G/	.	.	.
4r	4g 4c 4G/	.	4ee\	.
=76	=76	=76	=76	=76
!	!	!	!LO:MO:mod=!LO&colon;TX&colon;a&colon;i&colon;t=cantabile	!
!	!	!	!LO:TX:b:i:t=cantabile	!
4C 4CC/	4r	p	(8.c'/L	.
.	.	.	16ee'/Jk)	.
4r	4g 4e 4c 4G/	.	(4.aa\	.
4r	4g 4e 4c 4G/	.	.	.
.	.	.	8gg\)	.
=77	=77	=77	=77	=77
.	.	.	(16qqffn/LL	.
.	.	.	16qqgg/JJ)	.
4GG 4GGG/	4r	.	8.ffny\L	.
.	.	.	16ee\Jk	.
4fn 4B 4G\	4r	.	4ff\	.
4f 4B 4G\	8.g/L	.	4dd\	.
.	16dd/Jk	.	.	.
=78	=78	=78	=78	=78
.	(16qqgg/LL	.	.	.
.	16qqaa/JJ	.	.	.
4GG 4GGG/	8.gg\L)	.	(8.fnL 8.G'/	.
.	16ffn\Jk	.	16b'/Jk)	.
4fn 4B 4G\	4ee\	.	4gg\	.
4f 4B 4G\	4dd\	.	4ffn\	.
=79	=79	=79	=79	=79
.	(16qqcc/LL	.	(16qqee/LL	.
.	16qqdd/JJ	.	16qqffn/JJ)	.
4C 4CC/	8.cc\L)	.	8.ee\L	.
.	16b\Jk	.	16dd#X\Jk	.
4e 4c 4G\	4cc\	.	4ee\	.
4e 4c 4G\	4r	.	4cc\	.
!!LO:PB:g=original
=80	=80	=80	=80	=80
.	.	.	(8qcc/	>
4E 4EE/	4r	.	(8.eee\L)	.
.	.	.	16ddd'\Jk)	]
4r	4g 4c 4G/	.	4ccc\	.
4r	4g#X 4c 4G#X/	.	(4gg#\	.
=81	=81	=81	=81	=81
*^	*^	*	*	*
2.Fn 2.FFn\	2ryy	2a 2A</	8r	.	8bb\L	.
.	.	.	8cn'\L	.	8aa\)	.
.	.	.	8c#X'\	.	8ggn`\	.
.	.	.	8d'\	.	8ffn`\	.
.	4A-/	4a-/	8e'\	.	8ee`\	.
.	.	.	8fn'\J	.	8dd`\J	.
*v	*v	*	*	*	*	*
*	*v	*v	*	*	*
=82	=82	=82	=82	=82
4G 4GG/	4r	.	8.ccT\L	.
.	.	.	16b\Jk	.
!	!LO:TX:b:i:t=rall.	!	!	!
4r	4g 4fn 4B 4G/	.	(4.aa;\	.
4r	4g 4f 4B 4G/	.	.	.
.	.	.	8b\)	.
=83	=83	=83	=83	=83
4C 4CC/	4cc: 4g: 4e: 4c:/	.	2.cc\	.
4C 4CC/	4ccc: 4gg: 4ee: 4cc:\	p	.	.
4r	4r	.	.	.
!	!	!	!LO:TX:a:B:t=D:mod=	!
=84	=84	=84	=84	=84
!!LO:TX:t=:mod=a tempo
!!LO:TX:B:t=:mod=D
!LO:TX:a:i:t=a tempo:mod=	!	!	!LO:TX:a:i:t=a tempo:mod=	!LO:DY:rj
4GG 4GGG/	4r	f	8.b'L 8.d 8.G/	ff
.	.	.	16cc'Jk 16d 16G/	.
4r	4g 4d 4B/	.	2b 2d 2G/	.
4r	4g 4d 4B/	.	.	.
=85	=85	=85	=85	=85
4AA 4AAA/	4r	.	8.aL 8.g 8.c#X'/	.
.	.	.	16bJk 16g 16c#'/	.
4r	4g 4c#X 4A/	.	2a 2g 2c#/	.
4r	4g 4c# 4A/	.	.	.
!!LO:LB:g=original
=86	=86	=86	=86	=86
4D 4DD/	4r	.	8.ff#L 8.ccn 8.d\	.
.	.	.	16ggJk 16cc 16d\	.
4r	4f# 4d 4cn 4A/	.	4aa 4cc 4d\	.
4r	4f# 4d 4c 4A/	.	8bbL 8cc 8d\	.
.	.	.	8aaJ 8cc 8d\	.
=87	=87	=87	=87	=87
4GG 4GGG/	4r	.	(8aaL 8b 8d 8G/	.
.	.	.	8ggJ 8b/)	.
.	.	.	(8qaa 8qb/	.
4r	4g 4d 4B 4G/	.	8ggL 8b'\)	.
.	.	.	8ff#J 8b'\	.
4r	4g 4d 4B 4G/	.	4gg 4b\	.
=88	=88	=88	=88	=88
4GG 4GGG/	4r	.	8.bL 8.d 8.G/	.
.	.	.	16ccJk 16d 16G/	.
4r	4g 4d 4B/	.	2b 2d 2G/	.
4r	4g 4d 4B/	.	.	.
=89	=89	=89	=89	=89
4AA 4AAA/	4r	.	8.aL 8.g 8.c#X/	.
.	.	.	16bJk 16g 16c#/	.
4r	4g 4c#X 4A/	.	2a 2g 2c#/	.
4r	4g 4c# 4A/	.	.	.
=90	=90	=90	=90	=90
4D 4DD/	4r	.	8.ff#L 8.ccn 8.d/	.
.	.	.	16ggJk 16cc 16d/	.
4r	4f# 4d 4cn 4A/	.	4aa 4cc 4d\	.
4r	4f# 4d 4c 4A/	.	8bbL 8cc 8d\	.
.	.	.	8aaJ 8cc 8d\	.
=91	=91	=91	=91	=91
4GG 4GGG/	4r	.	8aaL 8b 8d 8G/	.
.	.	.	8ggJ 8b/	.
.	.	.	(8qaa 8qb/	.
4r	4g 4d 4B/	.	8ggL 8b\)	.
.	.	.	8ff#J 8b\	.
4r;	4g 4d 4B;/	.	8ggL 8b/	.
.	.	.	8G;/J	.
=92||	=92||	=92||	=92||	=92||
*k[b-e-]	*k[b-e-]	*	*k[b-e-]	*
!!!OMD:
!!!OMD-mod: Minore\nTempo I
!LO:TX:a:i:t=Minore.:mod=	!LO:TX:a:i:t=Tempo I.:mod=	!	!	!LO:DY:rj
.	.	.	(16qqc/LL	p
!	!	!	!LO:TX:b:i:t=Minore.:mod=	!
!	!	!	!LO:TX:a:i:t=Tempo I.:mod=	!
.	.	.	16qqg/JJ)	.
!	!	!LO:DY:rj	!	!
4C 4CC/	4r	p	(8.ee-\L	.
.	.	.	16ff\Jk)	.
4r	4g 4e-X 4G/	.	4.gg\	.
4r	4g 4e- 4G/	.	.	.
.	.	.	8ee-\	.
!!LO:LB:g=original
=93	=93	=93	=93	=93
.	.	.	(16qqdd/LL	.
.	.	.	16qqee-/JJ	.
4GG/	4r	.	8.dd\L)	.
.	.	.	16cc#X\Jk	.
4r	4g 4d 4B-/	.	4dd\	.
4r	4g 4d 4B-/	.	4b-\	.
=94	=94	=94	=94	=94
.	.	.	(16qqb-/LL	.
.	.	.	16qqdd/JJ	.
4D\	4r	.	8.ccn\L)	.
.	.	.	16bn\Jk	.
4r	4f#X 4d 4c/	.	4cc\	.
4r	4f# 4d 4c/	.	4a/	.
=95	=95	=95	=95	=95
4GG/	4r	.	8.g/L	.
.	.	.	16b-X/Jk	.
4r	4g 4B-/	.	4ee-\	.
4r	4g 4d 4B-/	.	4dd\	.
=96	=96	=96	=96	=96
4C/	4r	.	8.ee-\L	.
.	.	.	16ff\Jk	.
4r	4g 4e- 4G/	.	4.gg\	.
4r	4g 4e- 4G/	.	.	.
.	.	.	8ee-\	.
=97	=97	=97	=97	=97
.	.	.	(16qqcc/LL	.
.	.	.	16qqee-/JJ	.
4GG/	4r	.	8.dd\L)	.
.	.	.	16cc#X\Jk	.
4r	4g 4d 4B-/	.	4dd\	.
4r	4g 4d 4B-/	.	4b-\	.
=98	=98	=98	=98	=98
4C/	4r	.	8.g#X/L	.
.	.	.	16a/Jk	.
4r	4fn 4d 4A/	.	(4ff\	.
4r	4g 4c#X 4A/	.	4een\)	.
=99	=99	=99	=99	=99
2.D\	2.f 2.d 2.A/	.	2.dd\	.
!	!	!	!LO:TX:a:B:t=E:mod=	!
=100	=100	=100	=100	=100
*ped	*	*	*	*
!!LO:TX:B:t=:mod=E
2.AA 2.DD/	4r	.	(8.dd#X\L	pp
.	.	.	16een\Jk)	.
.	4g 4c#X 4A/	.	4.aa\	.
.	4g 4c# 4A/	.	.	.
.	.	.	8gg\	.
!!LO:LB:g=original
=101	=101	=101	=101	=101
.	.	.	(16qqff/LL	.
.	.	.	16qqgg/JJ	.
2.AA 2.DD/	4r	.	8.ff\L)	.
.	.	.	16een\Jk	.
.	4f 4d 4A/	.	4ff\	.
.	4f 4d 4A/	.	4dd\	.
=102	=102	=102	=102	=102
.	.	.	(16qqcc#X/LL	.
.	.	.	16qqdd/JJ	.
2.AA 2.DD/	4r	.	8.cc#y\L)	.
.	.	.	16bn\Jk	.
.	4g 4en 4c#X 4A/	.	4cc#\	.
.	4g 4e 4c# 4A/	.	4a/	.
=103	=103	=103	=103	=103
2.AA 2.DD/	4r	.	8.dd\L	.
.	.	.	16ff\Jk	.
.	4f 4d 4A/	.	4bb-\	.
.	4f 4d 4A/	.	4aa\	.
=104	=104	=104	=104	=104
2.AA 2.DD/	4r	.	8.dd#X\L	.
.	.	.	16een\Jk	.
.	.	.	(8qqee/	.
.	4g 4c#X 4A/	.	4.aa\)	.
.	4g 4c# 4A/	.	.	.
.	.	.	8gg\	.
=105	=105	=105	=105	=105
*	*^	*	*	*
.	.	.	.	(16qqff/LL	.
.	.	.	.	16qqgg/JJ)	.
2.AA 2.DD/	8.f/L	4r	.	8.ff\L	.
.	16g/Jk	.	.	16een\Jk	.
.	4.a/	4f 4d 4A\	.	4ff\	.
.	.	4f 4d 4A\	.	4dd\	.
.	8f/	.	.	.	.
*	*v	*v	*	*	*
=106	=106	=106	=106	=106
.	.	.	(16qqcc#X/LL	.
.	.	.	16qqdd/JJ)	.
2.AA 2.DD/	8.en/L	.	8.cc#y\L	.
.	16d/Jk	.	16bn\Jk	.
.	4e 4A 4G/	.	4cc#\	.
.	4g 4c#X 4A/	.	4a/	.
=107	=107	=107	=107	=107
4AA 4DD/	8fL 8d 8A/	<	2.dd\	<[
.	8d/	.	.	.
4r	8en/	.	.	.
.	8f/	.	.	.
4r	8g/	.	.	.
!	!	!LO:MO:mod=[[	!	!
.	8g#X/J	[	.	.
!!LO:PB:g=original
=108	=108	=108	=108	=108
*	*^	*	*	*
2.C#X^>/	2.a^/	4r	.	(16dd#X\LL	<
.	.	.	.	16een\	.
.	.	.	.	16dd#\	.
.	.	.	.	16ee\JJ)	.
.	.	4g 4en 4A\	.	(4.aa\	.
.	.	4g 4e 4A\	.	.	.
.	.	.	.	8gg\)	[[
=109	=109	=109	=109	=109	=109
.	.	.	.	(16qqff/LL	.
.	.	.	.	16qqgg/JJ)	.
2.D^\	2.a^/	4r	.	8.ff\L	.
.	.	.	.	16een\Jk	.
.	.	4f 4d 4A\	.	4ff\	.
.	.	4f 4d 4A\	.	4dd\	.
=110	=110	=110	=110	=110	=110
.	.	.	.	(16qqcc#X/LL	.
.	.	.	.	16qqee-/JJ)	.
2.En^\	2.a^/	4r	.	8.cc#\L	.
.	.	.	.	16bn\Jk	.
.	.	4g 4c#X 4A\	.	4cc#\	.
.	.	4g 4c# 4A\	.	4a/	.
=111	=111	=111	=111	=111	=111
2.F^\	2.a^/	4r	.	8.dd\L	.
.	.	.	.	16ff\Jk	.
.	.	4f 4d 4A\	.	4bb-\	.
.	.	4f 4d 4A\	.	4aa\	.
=112	=112	=112	=112	=112	=112
2.G^\	2.b-^/	4r	.	8.dd#X\L	.
.	.	.	.	16een\Jk	.
.	.	4f 4en\	.	4.aa\	.
.	.	4f 4e\	.	.	.
.	.	.	.	8gg\	.
=113	=113	=113	=113	=113	=113
.	.	.	.	(16qqff/LL	.
.	.	.	.	16qqgg/JJ)	.
2.A^\	2.a^/	4r	.	8.ff\L	.
.	.	.	.	16een\Jk	.
.	.	4f 4d\	.	4ff\	.
.	.	4f 4d\	.	4dd\	.
!!LO:LB:g=original
=114	=114	=114	=114	=114	=114
.	.	.	.	(16qqcc#X/LL	.
.	.	.	.	16qqdd/JJ)	.
2.AA/	2.a/	4r	.	8.cc#\L	.
.	.	.	.	16bn\Jk	.
.	.	4g 4en 4c#X 4A\	.	4cc#\	.
.	.	4g 4e 4c# 4A\	.	4a/	.
*	*v	*v	*	*	*
!	!	!	!LO:TX:a:B:t=F:mod=	!
=115	=115	=115	=115	=115
!!LO:TX:B:t=:mod=F
4D\	4a 4f#X 4d 4A/	.	8.dd\L	.
.	.	.	16ee-X\Jk	.
4r	4r	.	4gg\	.
4r	4r	.	8ff#X\L	.
.	.	.	8ee-\J	.
=116	=116	=116	=116	=116
2.r	2.r	.	8.dd\L	.
.	.	.	16ee-\Jk	.
.	.	.	4gg\	.
.	.	.	8ff#X\L	.
.	.	.	8ee-\J	.
=117	=117	=117	=117	=117
2.r	2.r	.	8dd\L	.
.	.	.	8ee-\J	.
.	.	.	8gg\L	.
!!LO:TX:i:t=:mod=poco accelerando
!	!	!	!LO:TX:b:i:t=poco accelerando:mod=	!
.	.	.	8ff#X\J	.
.	.	.	8ee-\L	.
.	.	.	8dd\J	.
=118	=118	=118	=118	=118
2.r	2.r	.	8ee-\L	.
.	.	.	8gg\J	.
.	.	.	8ff#X\L	.
.	.	.	8ee-\J	.
.	.	.	8dd\L	.
.	.	.	8ee-\J	.
=119	=119	=119	=119	=119
2.r	2.r	.	8gg\L	.
.	.	.	8ff#X\J	.
.	.	.	8ee-\L	.
.	.	.	8dd\J	.
.	.	.	8ee-\L	.
.	.	.	8gg\J	.
=120	=120	=120	=120	=120
2.r	2.r	.	8ff#X\L	.
.	.	.	8ee-\J	.
.	.	.	8dd\L	.
.	.	.	8cc#X\J	.
.	.	.	8.dd\L	.
.	.	.	16dd\Jk	.
!!LO:LB:g=original
=121	=121	=121	=121	=121
!!LO:TX:t=:mod=a tempo
!LO:TX:a:i:t=a tempo:mod=	!	!	!LO:TX:a:i:t=a tempo:mod=	!
4C/	4r	.	8.ee-\L	.
.	.	.	16ffn\Jk	.
4r	4g 4e- 4G/	.	4.gg\	.
4r	4g 4e- 4G/	.	.	.
.	.	.	16ee-\	.
.	.	.	16r	.
=122	=122	=122	=122	=122
.	.	.	(16qqdd/LL	.
.	.	.	16qqee-/JJ)	.
4GG/	4r	.	8.dd\L	.
.	.	.	16cc#X\Jk	.
4r	4g 4d 4B-/	.	4dd\	.
4r	4g 4d 4B-/	.	4b-\	.
=123	=123	=123	=123	=123
.	.	.	(16qqccn/LL	.
.	.	.	16qqdd/JJ)	.
4D\	4r	.	8.cc\L	.
.	.	.	16bn\Jk	.
4r	4f#X 4d 4c/	.	4cc\	.
4r	4f# 4d 4c/	.	4a/	.
=124	=124	=124	=124	=124
4GG/	4r	.	8.g/L	.
.	.	.	16b-/Jk	.
.	.	.	(8qb-/	.
4r	4g 4B-/	.	4ee-\)	.
4r	4g 4d 4B-/	.	4dd\	.
=125	=125	=125	=125	=125
4C/	4r	.	8.ee-\L	.
.	.	.	16ff\Jk	.
4r	4g 4e- 4G/	.	4.gg\	.
4r	4g 4e- 4G/	.	.	.
.	.	.	8ee-\	.
=126	=126	=126	=126	=126
*	*^	*	*	*
[2.D\	[2.g/	2.d 2.B-\	.	(8dd\L	.
.	.	.	.	8bb-\)	.
.	.	.	.	8gg`\	.
.	.	.	.	8dd`\	.
.	.	.	.	8b-`\	.
.	.	.	.	8g`\J	.
!!LO:LB:g=original
=127	=127	=127	=127	=127	=127
2.D;\_	4g/]	2.d 2.c\	.	(8d/L	.
.	.	.	.	8b-/J)	.
.	2f#X;/	.	.	(4.b-;/	.
.	.	.	.	8a/)	.
=128	=128	=128	=128	=128	=128
2.D\] [2.GG\	4g [<4B-/	4ryy	.	4g/	.
!	!	!	!LO:DY:rj	!	!LO:DY:rj
.	(8B-</L]	2d/	p	(8dL 8G/	p
.	8F#X</	.	.	8d 8A/	.
.	.	.	.	8qqc/	.
.	8G</	.	.	8d 8B-/	.
.	8c</J)	.	.	8dJ 8A/)	.
=129	=129	=129	=129	=129	=129
*^	*	*	*	*	*
[2.D\	(8GG\L]	[2.d/	(4.B-</	.	4d 4G'/	.
.	8FF#X\J	.	.	.	.	.
.	[2GG\)	.	.	.	(8dL 8G/	.
.	.	.	8F#X</L	.	8d 8A/	.
.	.	.	.	.	8qc/	.
.	.	.	8G</	.	8d 8B-/	.
.	.	.	8c</J)	.	8dJ 8A/)	.
*v	*v	*	*	*	*	*
=130	=130	=130	=130	=130	=130
!LO:TX:b:i:t=morendo	!	!	!	!LO:TX:a:i:t=morendo	!
2.D\_ 2.GG\_	2.d/_	(8B-</L	.	(8dL 8G/	.
.	.	8F#X</	.	8d 8A/	.
.	.	.	.	8qc/	.
.	.	8G</	.	8d 8B-/	.
.	.	8c</	.	8d 8A/	.
.	.	8B-</	.	8d 8G/	.
.	.	8F#</J	.	8dJ 8A/)	.
=131	=131	=131	=131	=131	=131
.	.	.	.	8qc/	.
2.D] 2.GG\]	2.d/]	8G</L	.	(8dL 8B-/	.
.	.	8c</	.	8d 8A/	.
.	.	8B-</	.	8d 8G/	.
.	.	8F#X</	.	8d 8A/	.
.	.	.	.	8qc/	.
.	.	8G</	.	8d 8B-/	.
.	.	8c</J)	.	8dJ 8A/)	.
=132	=132	=132	=132	=132	=132
2D 2GG;\	2d;/	2Bn<;/	pp	4G/	pp
!	!	!	!	!LO:N:n=2:vis=2	!
.	.	.	.	4gg; 4rc 4rGyy/	.
4r	4ryy	4r	.	4r	.
==	==	==	==	==	==
*-	*-	*-	*-	*-	*-
!!!system-decoration: s1{(s2,s3)}
!!!RDF**kern: > = above
!!!RDF**kern: < = below
!!!filter-modern: sic -sq | shed -e "s/:rj/:RJ/L" | shed -k -e "s/([^a-gA-Gn#X-])[<>]/$1/g" | shed -e "s/LO:DY:(a|rj)/LO:dy:$1/L" | shed -e "s/-//B" | autostem -r | tie -s  | modori -m
!!!ENC: Marta Opryszak
!!!END: 2022-05-02
!!!ENC: Marta Lawrence
!!!END: 2022-05-14
!!!ENC-modern: Andrzej Borzym
!!!END-modern: 2022-07-15
